assets/svg/alert-notification.svg

<svg width="50px" height="50px" viewBox="0 0 50 50" version="1.1" xmlns="http://www.w3.org/2000/svg" xmlns:xlink="http://www.w3.org/1999/xlink">
    <defs>
        <path d="M25.0001707,40.640625 C22.4642121,40.640625 20.3551825,38.8150412 19.9538692,36.4147366 L30.0464722,36.4147366 C29.6451589,38.8150412 27.5361293,40.640625 25.0001707,40.640625 Z M38.8837329,28.5885604 C39.1228132,28.8421137 41.3343057,31.2424183 41.2233042,33.2877483 C41.2233042,34.0813701 40.5735182,34.7245503 39.7717454,34.7245503 L10.2282545,34.7245503 C9.42648171,34.7245503 8.77669569,34.0813701 8.77669569,33.2877483 L8.77669569,33.2370376 C8.66569413,31.2424183 10.8771867,28.8421137 11.1248055,28.5708117 C14.4548522,24.8697786 14.4548522,18.7253369 14.4548522,14.6684841 L14.4548522,13.7049815 C14.4633908,13.4091693 14.4719293,13.1302607 14.4890065,12.8429003 C14.8134726,7.45066673 18.3655224,4.59396619 21.8663406,3.59665653 C21.8492635,3.47833166 21.8407249,3.351555 21.8407249,3.23323013 C21.8407249,1.48371234 23.2581294,0.072265625 24.9999999,0.072265625 C26.7418705,0.072265625 28.159275,1.48371234 28.159275,3.23323013 C28.159275,3.351555 28.1515903,3.47833166 28.1336592,3.59665653 C31.6344775,4.59396619 35.1865273,7.45066673 35.5109934,12.8429003 C35.5280705,13.1302607 35.5366091,13.4091693 35.5451477,13.7049815 L35.5451477,14.6684841 C35.5451477,18.7253369 35.5451477,24.8697786 38.8837329,28.5885604 Z M2.5,44.9992833 L47.5,44.9992833 C48.8803571,44.9992833 50,46.1189262 50,47.4974976 C50,48.8796405 48.8803571,49.9992833 47.5,49.9992833 L2.5,49.9992833 C1.11964286,49.9992833 0,48.8796405 0,47.4974976 C0,46.1189262 1.11964286,44.9992833 2.5,44.9992833 Z" id="path-1"></path>
    </defs>
</svg>

<svg width="50" height="50" xmlns="http://www.w3.org/2000/svg"><defs><path d="M25 40.64c-2.536 0-4.645-1.825-5.046-4.225h10.092c-.4 2.4-2.51 4.226-5.046 4.226zM38.884 28.59c.239.253 2.45 2.653 2.34 4.699 0 .793-.65 1.437-1.452 1.437H10.228a1.444 1.444 0 01-1.451-1.437v-.051c-.111-1.995 2.1-4.395 2.348-4.666 3.33-3.701 3.33-9.846 3.33-13.903v-.963c.008-.296.017-.575.034-.862.324-5.392 3.877-8.249 7.377-9.246a2.6 2.6 0 01-.025-.364 3.16 3.16 0 116.318 0c0 .119-.007.245-.025.364 3.5.997 7.053 3.854 7.377 9.246.017.287.026.566.034.862v.963c0 4.057 0 10.202 3.339 13.92zM2.5 44.999h45a2.5 2.5 0 010 5h-45a2.5 2.5 0 010-5z" id="path-1"/></defs></svg>
